X:1
T:Oh, Say, Will You Be There?
T:Oh, Say, Will You Be There?
T:B. F. Griffeth
T:B. F. Griffeth, 1882
T:Public Domain Courtesy of the Cyber Hymnal™
C:B. F. Griffeth
Z:Public Domain
Z:Courtesy of the Cyber Hymnal™
%%score ( 1 2 ) ( 3 4 )
L:1/8
Q:1/4=105
M:3/4
K:A
V:1 treble 
V:2 treble 
V:3 bass 
V:4 bass 
V:1
 [CE] | [CA]2 [CA] [CA]2 [Ec] | [CA]2 [CA] [CA]2 E | [DF]2 [DF] [DF]2 [DA] | %4
w: 1.~Be-|yond this world of|gild- ed snares, Be-|yond this life of|
w: 2.~Its|glor- ious gates are|closed to sin; Naught|that de- files can|
w: 3.~Will|you be there? Oh|yes, you must, For|in our Sav- ior|
 [CE]2 [CF] [DG]2 [CA] | [EG]2 [B,F] [B,E]2 [B,^D] | [B,E]3- [B,E]2 E | [^DF]2 [DF] [DF]2 [DF] | %8
w: toil and cares, There|is a re- gion|fair. * It|knows no change and|
w: en- ter in, To|mar its beau- ty|rare. * Up-|on that bright e-|
w: you can trust, Who|did that place pre-|pare. * Still|doth His voice sound|
 [EG]2 [EG] [EG]2 [EG] | [EA]2 [EA] [EA]2 [EA] | [EB]2 [Ec] !fermata![Fd]2 || %11
w: no de- cay, No|night, for all is|end- less day.|
w: ter- nal shore, Earth’s|gild- ed snares are|seen no more.|
w: sweet- ly, “Come, I|am the way, I’ll|lead you home.”|
[M:4/4]"^Refrain" [Ed] | [Ec]2 [Ec]2 [Ec]2 [Ec]2 | [Ec]6 ([Fd][Ec]) | [GB]2 [GB]2 [GB]2 [GB]2 | %15
w: ||||
w: Oh,|say, will you be|there? Oh, *|say, will you be|
w: ||||
 [GB]6 E2 | [DF]6 [DA]2 | [CE]6 [CA]2 | [FB]2 [FB]2 [EA]2 [EG]2 | [EA]4- [EA] |] %20
w: |||||
w: there? Oh,|say, oh,|say, Oh,|say, will you be|there? *|
w: |||||
V:2
 x | x6 | x5 E | x6 | x6 | x6 | x5 E | x6 | x6 | x6 | x5 ||[M:4/4] x | x8 | x8 | x8 | x6 E2 | x8 | %17
 x8 | x8 | x5 |] %20
V:3
 [A,,A,] | [A,,A,]2 [A,,A,] [A,,A,]2 [A,,A,] | [A,,E,]2 [A,,E,] [A,,E,]2 [C,A,] | %3
 [D,A,]2 [D,A,] [D,A,]2 [F,A,] | A,2 [F,A,] [E,B,]2 [A,,F,] | [B,,B,]2 [B,,A,] [B,,G,]2 [B,,F,] | %6
 [E,G,]3- [E,G,]2 [E,G,] | [B,,B,]2 [B,,B,] [B,,B,]2 [B,,B,] | [E,B,]2 [E,B,] [E,B,]2 [E,B,] | %9
 [C,A,]2 [C,A,] [C,A,]2 [C,A,] | [E,G,]2 A, !fermata![D,A,]2 ||[M:4/4] !fermata![E,B,] | %12
 [A,,A,]2 [C,A,]2 [E,A,]2 [C,A,]2 | [A,,A,]6 A,2 | [E,B,]2 [G,B,]2 B,2 [G,B,]2 | [E,B,]6 [C,A,]2 | %16
 [D,A,]6 [F,A,]2 | A,6 [F,C]2 | [D,D]2 [D,D]2 [E,C]2 [E,B,]2 | [A,,C]4- [A,,C] |] %20
V:4
 x | x6 | x6 | x6 | A,2 x4 | x6 | x6 | x6 | x6 | x6 | x2 A, x2 ||[M:4/4] x | x8 | x6 A,2 | %14
 x4 B,2 x2 | x8 | x8 | A,6 x2 | x8 | x5 |] %20

